kiosk-igrinskij/images/5dc7928862df23a82c1cffaa22381cbc.svg

<svg fill="none" height="18" viewBox="0 0 17 18" width="17" xmlns="http://www.w3.org/2000/svg"><path clip-rule="evenodd" d="m7.71626 3.67555c.06474.02342.13112.04346.19892.05991v10.26454h-4.74887zm2.09264-.53623c.2924-.33291.4694-.76821.4694-1.24456 0-1.046447-.85448-1.89476-1.90857-1.89476-1.0541 0-1.90861.848313-1.90861 1.89476 0 .45053.15839.86433.42291 1.18952l-4.81052 10.91572h-1.181906c-.748053 0-1.191049.7786-.655661 1.3011 1.659887 1.6197 4.630157 2.6989 8.018147 2.6989 3.38801 0 6.35831-1.0792 8.01811-2.6989.5354-.5225.0924-1.3011-.6556-1.3011h-1.366zm-.89372.57169c.01402-.00414.02798-.00844.04186-.01289l4.21316 10.30188h-4.25502z" fill="#f1e9dd" fill-rule="evenodd"/></svg>

<svg width="17" height="18" viewBox="0 0 17 18" fill="none" xmlns="http://www.w3.org/2000/svg">
<path fill-rule="evenodd" clip-rule="evenodd" d="M7.71626 3.67555C7.781 3.69897 7.84738 3.71901 7.91518 3.73546L7.91518 14H3.16631L7.71626 3.67555ZM9.8089 3.13932C10.1013 2.80641 10.2783 2.37111 10.2783 1.89476C10.2783 0.848313 9.42382 0 8.36973 0C7.31563 0 6.46112 0.848313 6.46112 1.89476C6.46112 2.34529 6.61951 2.75909 6.88403 3.08428L2.07351 14H0.891604C0.143551 14 -0.299445 14.7786 0.235943 15.3011C1.89583 16.9208 4.8661 18 8.25409 18C11.6421 18 14.6124 16.9208 16.2722 15.3011C16.8076 14.7786 16.3646 14 15.6166 14H14.2506L9.8089 3.13932ZM8.91518 3.71101C8.9292 3.70687 8.94316 3.70257 8.95704 3.69812L13.1702 14H8.91518L8.91518 3.71101Z" fill="#F1E9DD"/>
</svg>
